X: 94
I: linebreak $
T: Scotch Cap
T: longways for three couples
C: 
P: AABB x 3 or AABB x 5 or AA(BB x 3)(AABB x 2) 
K: A minor
M: 6/4
L: 1/8
P: A
 |: "Dm"D2 | "Dm"D4D2 d4d2 | "Am"e4d2 c4A2 | "G"B4d2 B4A2 | "G"B6 d4 :: 
P: B
de | "Dm"f4A2 A4de | "Dm"f4A2 A4de | 
"Dm"f4A2 A4F2 | "Dm"A6 d6 | "G"B4B2 "Dm"A4F2 | "C"G4G2 "Dm"d4d2 | "Em"B4B2 "Dm"A2F4 | "Em"E6 "Dm"D6 :| 


